X:1
T:False-Hearted Lover
M:3/4
L:1/8
K:C
 EF| G3 GA G| G E3 cd| e2 B3 d| c4 d2| e2 B3 c| d2 F3 G| cB A2 B2|\
 c6| z4||
